src/assets/images/icon-location.svg

<svg width="24" height="24" viewBox="0 0 24 24" fill="none" xmlns="http://www.w3.org/2000/svg">
<path d="M9.75 9C9.75 7.75736 10.7574 6.75 12 6.75C13.2426 6.75 14.25 7.75736 14.25 9C14.25 10.2426 13.2426 11.25 12 11.25C10.7574 11.25 9.75 10.2426 9.75 9Z" fill="#F58020"/>
<path fill-rule="evenodd" clip-rule="evenodd" d="M11.838 2.5C8.63566 2.5 5.96864 4.95623 5.70556 8.14777C5.56414 9.8635 6.09411 11.5671 7.18386 12.8999L10.7787 17.2962C11.4099 18.0682 12.5901 18.0682 13.2214 17.2962L16.8161 12.8999C17.9059 11.5671 18.4359 9.8635 18.2944 8.14777C18.0314 4.95623 15.3643 2.5 12.162 2.5H11.838ZM12 5.25C9.92893 5.25 8.25 6.92893 8.25 9C8.25 11.0711 9.92893 12.75 12 12.75C14.0711 12.75 15.75 11.0711 15.75 9C15.75 6.92893 14.0711 5.25 12 5.25Z" fill="#F58020"/>
<path d="M7.33541 15.3292C7.70589 15.5144 7.85606 15.9649 7.67082 16.3354L6.21353 19.25H17.7865L16.3292 16.3354C16.1439 15.9649 16.2941 15.5144 16.6646 15.3292C17.0351 15.1439 17.4856 15.2941 17.6708 15.6646L19.6708 19.6646C19.7871 19.8971 19.7746 20.1732 19.638 20.3943C19.5013 20.6154 19.2599 20.75 19 20.75H5C4.74007 20.75 4.49867 20.6154 4.36201 20.3943C4.22536 20.1732 4.21293 19.8971 4.32918 19.6646L6.32918 15.6646C6.51442 15.2941 6.96493 15.1439 7.33541 15.3292Z" fill="#F58020"/>
</svg>

<svg width="24" height="24" fill="none" xmlns="http://www.w3.org/2000/svg"><path d="M9.75 9a2.25 2.25 0 1 1 4.5 0 2.25 2.25 0 0 1-4.5 0Z" fill="#F58020"/><path fill-rule="evenodd" clip-rule="evenodd" d="M11.838 2.5a6.153 6.153 0 0 0-6.132 5.648A6.645 6.645 0 0 0 7.184 12.9l3.595 4.396a1.578 1.578 0 0 0 2.442 0l3.595-4.396a6.644 6.644 0 0 0 1.478-4.752A6.153 6.153 0 0 0 12.162 2.5h-.324ZM12 5.25a3.75 3.75 0 1 0 0 7.5 3.75 3.75 0 0 0 0-7.5Z" fill="#F58020"/><path d="M7.335 15.33a.75.75 0 0 1 .336 1.005L6.214 19.25h11.572l-1.457-2.915a.75.75 0 1 1 1.342-.67l2 4A.75.75 0 0 1 19 20.75H5a.75.75 0 0 1-.67-1.085l2-4a.75.75 0 0 1 1.005-.336Z" fill="#F58020"/></svg>
